packages/foundations/assets/icons/functional/images/human/shower_women_14.svg

<svg width="14" height="14" viewBox="0 0 14 14" fill="none" xmlns="http://www.w3.org/2000/svg">
<g clip-path="url(#clip0_185_1198)">
<path fill-rule="evenodd" clip-rule="evenodd" d="M5.95014 9.80039C6.58726 9.80039 7.07083 10.2526 7.28498 10.7952L7.68356 11.7485C7.76743 12.126 7.52944 12.4999 7.15199 12.5838C6.77455 12.6677 6.448 12.3621 6.31672 12.0522L5.93862 11.2005H3.15014L2.78344 12.0528C2.62148 12.409 2.32514 12.6678 1.94776 12.5837C1.57039 12.4995 1.33268 12.1254 1.41684 11.748L1.80435 10.8063C1.97344 10.3358 2.47558 9.80039 3.15014 9.80039H5.95014ZM4.56528 4.72543C5.62814 4.72543 6.47514 5.57239 6.4751 6.63525C6.48196 7.69778 5.62778 8.56551 4.56528 8.57539C3.49685 8.56799 2.63254 7.70368 2.62514 6.63525C2.63506 5.57277 3.50277 4.71862 4.56528 4.72543ZM10.4865 7.39727C10.5518 7.67966 10.3758 7.96157 10.0934 8.02669C9.81091 8.09181 9.52906 7.91572 9.46375 7.63321C9.39844 7.35071 9.57448 7.06892 9.85692 7.0038C10.1394 6.93856 10.4212 7.11477 10.4865 7.39727ZM12.5288 6.91166C12.6746 7.16228 12.5898 7.48355 12.3394 7.62928C12.0889 7.77489 11.7675 7.68975 11.6216 7.43913C11.4757 7.18838 11.5604 6.86711 11.8109 6.7215C12.0614 6.5759 12.3829 6.66103 12.5288 6.91166ZM8.13881 6.72072C8.38954 6.86665 8.47467 7.18801 8.32895 7.43843C8.18323 7.68897 7.86197 7.7738 7.61136 7.62786C7.36075 7.48192 7.27561 7.16057 7.42133 6.91003C7.56694 6.65961 7.88819 6.57478 8.13881 6.72072ZM10.4865 5.78115C10.5519 6.06366 10.3759 6.34545 10.0934 6.41057C9.81093 6.47581 9.52907 6.2996 9.46375 6.0171C9.39844 5.73471 9.57448 5.45292 9.85695 5.38768C10.1394 5.32256 10.4213 5.49877 10.4865 5.78115ZM8.66387 5.14682C8.9145 5.29275 8.99963 5.61409 8.85403 5.86463C8.7083 6.11516 8.38703 6.19987 8.13641 6.05394C7.88578 5.90812 7.80065 5.58666 7.94625 5.33624C8.09186 5.08571 8.41325 5.00088 8.66387 5.14682ZM12.0037 5.33662C12.1496 5.58725 12.0648 5.90852 11.8144 6.05425C11.5639 6.19986 11.2425 6.11484 11.0966 5.8641C10.9506 5.61347 11.0355 5.2922 11.2859 5.14659C11.5364 5.00086 11.8578 5.086 12.0037 5.33662ZM9.97514 1.40039C10.3341 1.40039 10.675 1.70041 10.675 2.10039V3.02719L10.9647 3.06277L11.6516 3.15779C12.0342 3.21385 12.2988 3.56939 12.2427 3.9519C12.1867 4.33441 11.8311 4.59905 11.4486 4.54299L10.5625 4.42403C10.3645 4.3916 10.1679 4.37539 9.97285 4.37539C9.84282 4.37539 9.71279 4.3826 9.58276 4.39701L8.50165 4.54299C8.11913 4.59905 7.7636 4.33441 7.70754 3.9519C7.65148 3.56939 7.91612 3.21385 8.29863 3.15779L8.98554 3.06277L9.27504 3.02859L9.27514 2.10039C9.27514 1.71379 9.58854 1.40039 9.97514 1.40039Z" fill="#1A1C1F"/>
</g>
<defs>
<clipPath id="clip0_185_1198">
<rect width="14" height="14" fill="white"/>
</clipPath>
</defs>
</svg>

<svg xmlns="http://www.w3.org/2000/svg" width="14" height="14" fill="none"><g clip-path="url(#a)"><path fill="#1A1C1F" fill-rule="evenodd" d="M5.95 9.8c.637 0 1.12.452 1.335.995l.399.954a.7.7 0 0 1-.532.835c-.377.084-.704-.222-.835-.532l-.378-.852H3.15l-.367.853c-.162.356-.458.615-.835.53a.7.7 0 0 1-.531-.835l.387-.942c.17-.47.672-1.006 1.346-1.006zM4.565 4.725a1.9 1.9 0 0 1 1.91 1.91 1.93 1.93 0 0 1-1.91 1.94 1.954 1.954 0 0 1-1.94-1.94 1.93 1.93 0 0 1 1.94-1.91m5.921 2.672a.525.525 0 1 1-1.022.237.525.525 0 0 1 1.022-.237m2.043-.485a.525.525 0 1 1-.907.528.525.525 0 0 1 .907-.528m-4.39-.191a.525.525 0 1 1-.528.908.525.525 0 0 1 .528-.908m2.348-.94a.524.524 0 1 1-1.022.237.524.524 0 0 1 1.021-.237m-1.823-.634a.525.525 0 1 1-.529.908.525.525 0 0 1 .529-.908m3.34.19a.525.525 0 1 1-.907.528.525.525 0 0 1 .907-.528M9.975 1.4c.36 0 .7.3.7.7v.927l.29.036.687.095a.7.7 0 1 1-.203 1.385l-.886-.119a3.6 3.6 0 0 0-.98-.027l-1.081.146a.7.7 0 1 1-.203-1.385l.687-.095.289-.034V2.1a.7.7 0 0 1 .7-.7" clip-rule="evenodd"/></g><defs><clipPath id="a"><path fill="#fff" d="M0 0h14v14H0z"/></clipPath></defs></svg>
